!!!OTL: GOTT DEINE KINDLEIN
!!!ARE: Europa, Mitteleuropa, Deutschland
!!!SCT: B0758
!!!YEM: Copyright 1995, estate of Helmut Schaffrath.
**kern
*ICvox
*Ivox
*M4/4
*k[f#]
*G:
{4d
=1
4g
4a
4b
8dd
8cc
=2
2b
4a}
{8b
8cc
=3
4dd
4g
4f#
4g
=4
2a
4r}
{8a
8b
=5
4cc
4b
4a
8b
8cc
=6
4dd
4cc
4b}
{4ee
=7
4dd
8g
8a
4b
4a
=8
2g
4r}
==
!!!AGN: religioes
!!!ONB: ESAC (Essen Associative Code) Database: BOEHME
!!!AMT: simple quadruple
!!!AIN: vox
!!!EED: Helmut Schaffrath
!!!EEV: 1.0
*-
